li/weather-rain-wind.svg

<svg role="img" focusable="false" aria-hidden="true" xmlns="http://www.w3.org/2000/svg" viewBox="0 0 14 14" height="1em" width="1em">
  <path d="m 1,6.514218 c 0,0.647711 0.1908434,1.220241 0.566747,1.729157 0.3759036,0.503132 0.8674699,0.85012 1.4746988,1.03518 0.052048,0.01157 0.098313,-0.0058 0.1387952,-0.04627 L 3.8510843,8.405297 c -0.5146988,0 -0.9542168,-0.18506 -1.3185542,-0.55518 C 2.1681928,7.479996 1.9831325,7.034695 1.9831325,6.514213 1.9831325,6.02843 2.1450602,5.600478 2.4689157,5.241924 2.7927711,4.88337 3.1975904,4.68096 3.6833735,4.640478 l 0.306506,-0.04048 c 0.063614,0 0.09253,-0.02313 0.09253,-0.07518 L 4.1286745,4.206745 C 4.1980725,3.570601 4.4698793,3.044336 4.9325299,2.62795 5.3951805,2.211564 5.9445781,2.003372 6.580723,2.003372 c 0.636144,0 1.191325,0.208192 1.659759,0.630361 0.474217,0.422169 0.734458,0.948434 0.792289,1.573012 l 0.04048,0.335422 c 0.01157,0.06361 0.05783,0.09831 0.127229,0.09831 l 0.936867,0 c 0.520482,0 0.965784,0.18506 1.330121,0.549398 0.364337,0.364337 0.549397,0.803855 0.549397,1.324337 0,0.48 -0.161927,0.902169 -0.485783,1.260723 -0.323855,0.358554 -0.722891,0.566747 -1.197108,0.624578 -0.0694,0 -0.161928,0.01157 -0.283374,0.0347 -0.109879,0.01157 -0.190843,0.05205 -0.237108,0.133012 l -1.364819,1.613494 c -0.08096,0.104097 -0.115663,0.225542 -0.09253,0.364337 0.01735,0.138796 0.08096,0.248675 0.179277,0.329639 0.06361,0.0694 0.167711,0.10988 0.323855,0.10988 0.150362,0 0.271807,-0.0694 0.352771,-0.20241 L 10.43807,9.371081 C 11.155179,9.295901 11.762408,8.989394 12.259757,8.439996 12.757108,7.890604 13,7.248676 13,6.514218 13,6.126748 12.92482,5.750845 12.774458,5.398074 12.624096,5.045302 12.421687,4.738796 12.167229,4.484339 11.912771,4.229881 11.606265,4.027471 11.253494,3.87711 10.900723,3.726748 10.530602,3.651567 10.137349,3.651567 l -0.18506,0 C 9.761446,2.888194 9.350843,2.257833 8.726265,1.766266 8.101687,1.2747 7.384578,1.031808 6.57494,1.031808 c -0.5378316,0 -1.0467472,0.115663 -1.5209641,0.346988 -0.4742169,0.231326 -0.873253,0.549398 -1.2028916,0.96 C 3.5214458,2.749399 3.3074699,3.217833 3.1975904,3.738314 2.5498795,3.882893 2.0178313,4.212531 1.6072289,4.733013 1.2024096,5.247712 1,5.843375 1,6.514218 Z m 1.9546988,4.638072 c 0,0.0347 0.011566,0.09253 0.034699,0.173494 0.052048,0.121446 0.133012,0.208193 0.2544578,0.254458 0.1272289,0.05783 0.2544579,0.06361 0.3874699,0.01157 0.133012,-0.05205 0.219759,-0.138795 0.2660241,-0.260241 0.057831,-0.127228 0.063614,-0.248674 0.011566,-0.375903 -0.052048,-0.121446 -0.1387952,-0.208193 -0.2660241,-0.248675 -0.1272289,-0.06361 -0.2544579,-0.0694 -0.3759036,-0.01735 -0.1214458,0.05205 -0.2081928,0.138795 -0.2660241,0.271807 -0.028916,0.05783 -0.046265,0.121446 -0.046265,0.190843 z m 1.0698795,-1.411084 0,0.05783 c 0.011566,0.133012 0.069398,0.237109 0.173494,0.323856 0.133012,0.07518 0.2486747,0.109879 0.3585542,0.109879 0.1272289,0 0.2486747,-0.06361 0.3527711,-0.190843 L 6.2510843,8.44 C 6.3320483,8.34169 6.37253,8.214458 6.366747,8.058313 6.355181,7.936868 6.297349,7.832771 6.2048193,7.751807 6.1122893,7.670847 6.0139759,7.624579 5.9040964,7.624579 c -0.034699,0 -0.057831,0 -0.080964,0.0058 -0.133012,0.02313 -0.2428915,0.08675 -0.3238554,0.190843 L 4.1344578,9.423134 C 4.0592768,9.515664 4.0245783,9.61976 4.0245783,9.741206 Z m 0.4453012,2.729639 c 0,0.0694 0.017349,0.133012 0.046265,0.18506 0.046265,0.121446 0.133012,0.213976 0.2544578,0.271807 0.063614,0.02892 0.1272289,0.04048 0.1908434,0.04048 0.069398,0 0.133012,-0.01157 0.1792771,-0.04048 C 5.2737348,12.875662 5.366265,12.7947 5.41253,12.690604 5.470361,12.563375 5.476144,12.436146 5.424096,12.303134 5.377831,12.170122 5.2910839,12.083375 5.163855,12.03711 5.0366261,11.97928 4.9093972,11.97349 4.7763851,12.02554 c -0.133012,0.05205 -0.219759,0.138796 -0.2602409,0.260241 -0.034699,0.05205 -0.046265,0.115663 -0.046265,0.185061 z m 0.9657832,-1.359037 0,0.06362 c 0.011566,0.127229 0.075181,0.231325 0.1792771,0.318072 0.1040963,0.08675 0.2139759,0.127229 0.3180722,0.127229 0.1330121,0 0.2486747,-0.06361 0.3643374,-0.190843 L 8.813012,8.399524 c 0.06362,-0.0694 0.09831,-0.173494 0.09831,-0.300723 l 0,-0.0694 C 8.899752,7.896389 8.841922,7.798076 8.755178,7.722895 8.668428,7.647715 8.564334,7.607232 8.454455,7.607232 l -0.07518,0 c -0.133012,0.0058 -0.242891,0.0694 -0.318072,0.179277 l -2.5156628,3.007229 c -0.080964,0.104097 -0.1098795,0.208193 -0.1098795,0.318072 z m 2.0298793,0.665061 c 0,0.05205 0.01157,0.109879 0.0347,0.173494 0.05205,0.127229 0.138795,0.219759 0.266024,0.271807 0.08096,0.02313 0.138795,0.0347 0.179277,0.0347 0.08096,0 0.150362,-0.01735 0.196627,-0.04627 0.127229,-0.05205 0.219759,-0.133012 0.266024,-0.242892 0.05783,-0.09831 0.06361,-0.225542 0.01157,-0.38747 C 8.373504,11.458792 8.286752,11.377829 8.165306,11.32578 L 7.957113,11.27373 c -0.05205,0.01157 -0.109879,0.02313 -0.18506,0.04048 -0.127229,0.04627 -0.213976,0.133012 -0.260241,0.254458 -0.02891,0.07518 -0.04626,0.144578 -0.04626,0.208193 z"/>
</svg>

<svg aria-hidden="true" xmlns="http://www.w3.org/2000/svg" viewBox="0 0 14 14" height="1em" width="1em">
  <path d="M1 6.514c0 .648.19 1.22.567 1.73.376.503.867.85 1.474 1.035.052.011.099-.006.14-.047l.67-.827a1.78 1.78 0 0 1-1.318-.555 1.838 1.838 0 0 1-.55-1.336c0-.486.162-.914.486-1.272a1.782 1.782 0 0 1 1.214-.602l.307-.04c.063 0 .092-.023.092-.075l.047-.318c.07-.636.34-1.163.804-1.579a2.381 2.381 0 0 1 1.648-.625c.636 0 1.191.209 1.66.63.474.423.734.95.792 1.574l.04.335c.012.064.058.098.127.098h.937c.52 0 .966.186 1.33.55a1.8 1.8 0 0 1 .55 1.324c0 .48-.162.902-.486 1.26a1.87 1.87 0 0 1-1.197.626c-.07 0-.162.011-.283.034-.11.012-.191.052-.238.133L8.45 10.181a.45.45 0 0 0-.093.364.493.493 0 0 0 .18.33c.063.07.167.11.323.11.15 0 .272-.07.353-.203l1.226-1.41a2.77 2.77 0 0 0 1.822-.932c.497-.55.74-1.191.74-1.926a2.83 2.83 0 0 0-.226-1.116 2.869 2.869 0 0 0-.607-.914 2.869 2.869 0 0 0-.914-.607 2.81 2.81 0 0 0-1.116-.225h-.185a3.39 3.39 0 0 0-1.226-1.886 3.38 3.38 0 0 0-2.151-.734A3.471 3.471 0 0 0 3.85 2.339c-.33.41-.544.879-.653 1.4a2.722 2.722 0 0 0-1.59.994A2.804 2.804 0 0 0 1 6.514Zm1.955 4.638c0 .035.011.093.034.174a.441.441 0 0 0 .255.254.476.476 0 0 0 .387.012.44.44 0 0 0 .266-.26.45.45 0 0 0 .012-.376.42.42 0 0 0-.266-.249.43.43 0 0 0-.376-.017.491.491 0 0 0-.266.271.423.423 0 0 0-.046.191zm1.07-1.41v.057a.453.453 0 0 0 .173.324.73.73 0 0 0 .359.11c.127 0 .248-.064.352-.191L6.251 8.44a.548.548 0 0 0 .116-.382.46.46 0 0 0-.162-.306.452.452 0 0 0-.3-.127c-.036 0-.059 0-.082.005a.508.508 0 0 0-.324.191L4.134 9.423a.484.484 0 0 0-.11.318Zm.445 2.729c0 .07.017.133.046.185a.488.488 0 0 0 .255.272.454.454 0 0 0 .37 0 .467.467 0 0 0 .283-.625.412.412 0 0 0-.26-.266.476.476 0 0 0-.388-.011.415.415 0 0 0-.26.26.327.327 0 0 0-.046.185zm.966-1.36v.064a.46.46 0 0 0 .179.318.499.499 0 0 0 .318.128c.133 0 .249-.064.364-.191L8.813 8.4a.437.437 0 0 0 .098-.301v-.07a.44.44 0 0 0-.156-.306.456.456 0 0 0-.3-.116h-.076a.396.396 0 0 0-.318.18l-2.515 3.007a.495.495 0 0 0-.11.318zm2.03.666c0 .052.011.11.034.173.052.128.139.22.266.272a.719.719 0 0 0 .18.035.38.38 0 0 0 .196-.046.462.462 0 0 0 .266-.243c.058-.099.064-.226.012-.388a.441.441 0 0 0-.255-.254l-.208-.052-.185.04a.42.42 0 0 0-.26.255.592.592 0 0 0-.046.208z"/>
</svg>
